assets/logos/color_logo/n64.svg

<?xml version="1.0" encoding="UTF-8"?>
<svg width="488px" height="129px" viewBox="0 0 488 129" version="1.1" xmlns="http://www.w3.org/2000/svg" xmlns:xlink="http://www.w3.org/1999/xlink">
    <title>mainlogo</title>
    <g id="Page-1" stroke="none" stroke-width="1" fill="none" fill-rule="evenodd">
        <g id="mainlogo" fill-rule="nonzero">
            <path d="M163.625193,84.1049485 L180.388913,84.1049485 L180.388913,46.8534275 L169.046396,46.8534275 L169.046396,68.214446 L168.94963,68.214446 L161.470296,46.8534275 L144.707042,46.8534275 L144.707042,84.1049485 L156.043046,84.1049485 L156.043046,62.602038 L156.144929,62.602038 L163.625193,84.1049485 Z M226.870388,84.1049485 L243.635038,84.1049485 L243.635038,46.8534275 L232.298104,46.8534275 L232.298104,68.214446 L232.196221,68.214446 L224.717353,46.8534275 L207.954098,46.8534275 L207.954098,84.1049485 L219.294754,84.1049485 L219.294754,62.602038 L219.393381,62.602038 L226.870388,84.1049485 Z M335.774086,84.1049485 L352.541062,84.1049485 L352.541062,46.8534275 L341.201337,46.8534275 L341.201337,68.214446 L341.099919,68.214446 L333.621981,46.8534275 L316.857331,46.8534275 L316.857331,84.1049485 L328.19473,84.1049485 L328.19473,62.602038 L328.295218,62.602038 L335.774086,84.1049485 Z M187.237874,46.8534275 L201.220046,46.8534275 L201.220046,84.1049485 L187.237874,84.1049485 L187.237874,46.8534275 Z M256.576049,56.972882 L247.690357,56.972882 L247.690357,46.8534275 L279.470431,46.8534275 L279.470431,56.972882 L270.554034,56.972882 L270.554034,84.1049485 L256.576049,84.1049485 L256.576049,56.972882 Z M283.599254,46.8436579 L311.253297,46.8436579 L311.253297,56.6956112 L297.361843,56.6956112 L297.361843,60.5918245 L310.152122,60.5918245 L310.152122,70.1418504 L297.361843,70.1418504 L297.361843,74.3223128 L311.695256,74.3223128 L311.695256,84.0942484 L283.599254,84.0942484 L283.599254,46.8436579 Z" id="Shape" fill="#7B7692"></path>
            <g id="Group-58">
                <polygon id="Path" fill="#0222A9" points="64.2516977 13.8823825 49.4295718 40.3349958 64.2516977 34.655131 78.3994879 40.0723794 82.1882355 35.8202732 82.1882355 6.92688574"></polygon>
                <polygon id="Path" fill="#011DA9" points="110.299356 108.920911 83.5280677 73.9824614 83.5280677 120.176199 64.2516977 128.329869 64.2516977 49.4225935 83.5280677 42.0404905 110.299356 80.3040965 110.299356 31.6553956 128.503861 24.6347682 128.503861 101.275261"></polygon>
                <polygon id="Path" fill="#0222A9" points="18.2042716 108.920911 35.2841077 101.359001 18.2042716 68.1988525"></polygon>
                <path d="M36.4092411,24.6347682 L44.9771886,42.038397 L49.4295718,40.3349958 L64.2516977,13.8823825 L46.3142294,6.90664869 L36.4092411,24.6347682 Z M78.3994879,40.0723794 L92.1004348,24.6347682 L110.299356,31.6553956 L110.299356,80.3040965 L83.5280677,42.0404905 L78.3994879,40.0723794 Z" id="Shape" fill="#069330"></path>
                <polygon id="Path" fill="#069330" points="18.2042716 31.6553956 7.75663705e-13 24.6347682 7.75663705e-13 101.275261 18.2042716 108.920911 18.2042716 68.1988525 44.9771886 120.176199 64.2516977 128.329869 64.2516977 49.4225935 44.9771886 42.038397 44.9771886 82.0965873"></polygon>
                <path d="M44.9771886,42.038397 L44.9771886,82.0965873 L18.2042716,31.6553956 L36.4092411,24.6347682 L44.9771886,42.038397 Z M110.299356,108.920911 L83.5280677,73.9824614 L83.5280677,93.0711152 L88.994862,100.740026 L110.299356,108.920911 Z" id="Shape" fill="#FE2015"></path>
                <path d="M83.5280677,42.038397 L64.2516977,49.4225935 L44.9771886,42.038397 L64.2516977,34.655131 L83.5280677,42.038397 Z M92.0934565,24.6347682 L110.299356,17.6313538 L128.503861,24.6347682 L110.299356,31.6553956 L92.0934565,24.6347682 Z M2.27287504e-12,24.6347682 L18.2042716,17.6313538 L36.4092411,24.6347682 L18.2042716,31.6553956 L2.27287504e-12,24.6347682 Z M82.1882355,6.92688574 L64.2516977,-1.35290181e-13 L46.3142294,6.90664869 L64.2516977,13.8823825 L82.1882355,6.92688574 Z" id="Shape" fill="#FFC001"></path>
            </g>
            <path d="M358.568446,46.8469144 L375.130726,46.8469144 C389.272933,46.8469144 393.739506,54.8486898 393.739506,65.8743919 C393.739506,77.1327038 386.807735,84.1109963 375.968121,84.1109963 L358.568911,84.1109963 L358.568911,46.8469144 L358.568446,46.8469144 Z M372.245899,75.6440014 L373.595036,75.6440014 C375.874612,75.6440014 377.363779,74.9461722 378.247231,73.4574698 C379.17767,71.9222454 379.270714,69.0848717 379.270714,65.4556944 C379.270714,61.8739694 379.17767,59.0356653 378.247231,57.5004409 C377.363779,56.0117385 375.874612,55.3139093 373.595036,55.3139093 L372.245899,55.3139093 L372.245899,75.6440014 Z M415.650879,45.8699534 C427.83963,45.8699534 433.887483,53.8717288 433.887483,65.4556944 C433.887483,77.0861819 427.83963,85.0879573 415.650879,85.0879573 C403.50865,85.0879573 397.414274,77.0861819 397.414274,65.4556944 C397.414274,53.8717288 403.509115,45.8699534 415.650879,45.8699534 Z M415.650879,75.6440014 C417.83741,75.6440014 419.419157,74.5739966 419.419157,65.4556944 C419.419157,56.5700019 417.93092,55.3139093 415.650879,55.3139093 C413.417825,55.3139093 411.882601,56.5700019 411.882601,65.4556944 C411.883066,74.5739966 413.511334,75.6440014 415.650879,75.6440014 L415.650879,75.6440014 Z M440.447078,76.2487868 C437.981415,76.2487868 436.027493,78.2027087 436.027493,80.668372 C436.027493,83.0875134 437.981415,85.0879573 440.447078,85.0879573 C442.86622,85.0879573 444.866663,83.0875134 444.866663,80.668372 C444.866663,78.2027087 442.86622,76.2487868 440.447078,76.2487868 Z M440.447078,84.2970841 C438.400578,84.2970841 436.772309,82.6688159 436.772309,80.668372 C436.772309,78.6679282 438.400578,77.0396599 440.447078,77.0396599 C442.447522,77.0396599 444.07579,78.6679282 444.07579,80.668372 C444.07579,82.6688159 442.447522,84.2970841 440.447078,84.2970841 Z" id="Shape" fill="#FFFFFF"></path>
            <path d="M439.702727,83.0875134 L438.679244,83.0875134 L438.679244,78.2492306 L440.72621,78.2492306 C441.563605,78.2492306 442.447057,78.5288275 442.447057,79.5053233 C442.447057,80.1101086 442.028824,80.5288062 441.424039,80.668372 C442.214447,80.7614159 442.214447,81.2731574 442.307491,81.9244647 C442.354478,82.2501183 442.400535,82.8083817 442.587088,83.0875134 L441.424039,83.0875134 C441.330995,82.6688159 441.284008,82.2035964 441.237951,81.7848988 C441.237951,81.5053019 441.144907,81.1335915 440.819254,81.1335915 L439.702727,81.1335915 L439.702727,83.0875134 Z M439.702727,80.3427184 L440.586644,80.3427184 C441.051863,80.3427184 441.33146,80.1101086 441.33146,79.6448891 C441.33146,79.2266568 441.051863,79.0401038 440.586644,79.0401038 L439.702727,79.0401038 L439.702727,80.3427184 Z M163.625193,84.1049485 L180.388913,84.1049485 L180.388913,46.8534275 L169.046396,46.8534275 L169.046396,68.214446 L168.94963,68.214446 L161.470296,46.8534275 L144.707042,46.8534275 L144.707042,84.1049485 L156.043046,84.1049485 L156.043046,62.602038 L156.144929,62.602038 L163.625193,84.1049485 Z M226.870388,84.1049485 L243.635038,84.1049485 L243.635038,46.8534275 L232.298104,46.8534275 L232.298104,68.214446 L232.196221,68.214446 L224.717353,46.8534275 L207.954098,46.8534275 L207.954098,84.1049485 L219.294754,84.1049485 L219.294754,62.602038 L219.393381,62.602038 L226.870388,84.1049485 Z M335.774086,84.1049485 L352.541062,84.1049485 L352.541062,46.8534275 L341.201337,46.8534275 L341.201337,68.214446 L341.099919,68.214446 L333.621981,46.8534275 L316.857331,46.8534275 L316.857331,84.1049485 L328.19473,84.1049485 L328.19473,62.602038 L328.295218,62.602038 L335.774086,84.1049485 Z M187.237874,46.8534275 L201.220046,46.8534275 L201.220046,84.1049485 L187.237874,84.1049485 L187.237874,46.8534275 Z M256.576049,56.972882 L247.690357,56.972882 L247.690357,46.8534275 L279.470431,46.8534275 L279.470431,56.972882 L270.554034,56.972882 L270.554034,84.1049485 L256.576049,84.1049485 L256.576049,56.972882 Z M283.599254,46.8436579 L311.253297,46.8436579 L311.253297,56.6956112 L297.361843,56.6956112 L297.361843,60.5918245 L310.152122,60.5918245 L310.152122,70.1418504 L297.361843,70.1418504 L297.361843,74.3223128 L311.695256,74.3223128 L311.695256,84.0942484 L283.599254,84.0942484 L283.599254,46.8436579 Z" id="Shape" fill="#FFFFFF"></path>
            <path d="M458.916292,41.9155877 C458.171941,41.8225438 457.42759,41.8690657 456.450629,41.9155877 C450.542341,42.1947194 448.169722,44.7069047 447.331861,47.5447436 L447.471893,47.5447436 C448.96013,46.242129 450.774951,45.6373437 453.194092,45.6373437 C457.892809,45.6373437 462.126307,49.033446 462.126307,55.4534751 C462.126307,61.5483158 457.474112,66.2935547 451.146661,66.2935547 C442.865754,66.2935547 439.237042,59.9661043 439.237042,53.1743648 C439.237042,47.6382528 441.190964,42.9860578 444.400979,39.962131 C447.471893,37.1242921 451.426258,35.6821116 456.264076,35.5895329 C457.520169,35.496489 458.311042,35.5895329 458.915827,35.6360549 L458.915827,41.9155877 L458.916292,41.9155877 L458.916292,41.9155877 Z M451.054083,60.2917579 C452.961948,60.2917579 454.124997,58.337836 454.124997,55.8256507 C454.124997,53.732163 453.14757,51.4525874 450.588863,51.4525874 C449.007582,51.4525874 447.797546,52.4295484 447.332327,53.6391191 C447.146704,54.0112947 447.099717,54.5225709 447.099717,55.4069532 C447.239748,57.7795726 448.402797,60.2917579 451.007561,60.2917579 L451.054083,60.2917579 Z M476.781186,65.781348 L476.781186,59.1287092 L464.359826,59.1287092 L464.359826,53.7786849 L474.315058,36.0073001 L484.270755,36.0073001 L484.270755,52.9878118 L487.434248,52.9878118 L487.434248,59.1287092 L484.270755,59.1287092 L484.270755,65.781348 L476.781186,65.781348 L476.781186,65.781348 Z M476.781186,52.9878118 L476.781186,47.8703973 C476.781186,45.9629973 476.873765,44.0090754 476.966809,41.9155877 L476.827243,41.9155877 C475.896804,43.9625535 475.105931,45.8699534 474.035926,47.9169192 L471.616785,52.8947679 L471.570263,52.9878118 L476.781186,52.9878118 Z" id="Shape" fill="#FF2D1E"></path>
        </g>
    </g>
</svg>

<?xml version="1.0" encoding="UTF-8" standalone="no"?>
<svg
   xmlns:dc="http://purl.org/dc/elements/1.1/"
   xmlns:cc="http://creativecommons.org/ns#"
   xmlns:rdf="http://www.w3.org/1999/02/22-rdf-syntax-ns#"
   xmlns:svg="http://www.w3.org/2000/svg"
   xmlns="http://www.w3.org/2000/svg"
   xmlns:sodipodi="http://sodipodi.sourceforge.net/DTD/sodipodi-0.dtd"
   xmlns:inkscape="http://www.inkscape.org/namespaces/inkscape"
   width="500"
   height="200"
   viewBox="0 0 500 200"
   version="1.1"
   id="svg81"
   sodipodi:docname="n64.svg"
   inkscape:version="0.92.5 (2060ec1f9f, 2020-04-08)">
  <metadata
     id="metadata87">
    <rdf:RDF>
      <cc:Work
         rdf:about="">
        <dc:format>image/svg+xml</dc:format>
        <dc:type
           rdf:resource="http://purl.org/dc/dcmitype/StillImage" />
        <dc:title>mainlogo</dc:title>
      </cc:Work>
    </rdf:RDF>
  </metadata>
  <defs
     id="defs85" />
  <sodipodi:namedview
     pagecolor="#ffffff"
     bordercolor="#666666"
     borderopacity="1"
     objecttolerance="10"
     gridtolerance="10"
     guidetolerance="10"
     inkscape:pageopacity="0"
     inkscape:pageshadow="2"
     inkscape:window-width="1366"
     inkscape:window-height="740"
     id="namedview83"
     showgrid="false"
     inkscape:pagecheckerboard="true"
     inkscape:zoom="1.1968494"
     inkscape:cx="244"
     inkscape:cy="64.5"
     inkscape:window-x="0"
     inkscape:window-y="0"
     inkscape:window-maximized="1"
     inkscape:current-layer="svg81" />
  <title
     id="title56">mainlogo</title>
  <g
     id="Page-1"
     style="fill:none;fill-rule:evenodd;stroke:none;stroke-width:1"
     transform="translate(4,37)">
    <g
       id="mainlogo"
       style="fill-rule:nonzero">
      <path
         d="m 163.62519,84.104949 h 16.76372 V 46.853428 H 169.0464 v 21.361018 h -0.0968 l -7.4793,-21.361018 h -16.76326 v 37.251521 h 11.33601 V 62.602038 h 0.10188 z m 63.2452,0 h 16.76465 V 46.853428 H 232.2981 v 21.361018 h -0.10188 L 224.71735,46.853428 H 207.9541 v 37.251521 h 11.34065 V 62.602038 h 0.0986 z m 108.9037,0 h 16.76697 V 46.853428 h -11.33972 v 21.361018 h -0.10142 l -7.47794,-21.361018 h -16.76465 v 37.251521 h 11.3374 V 62.602038 h 0.10049 z M 187.23787,46.853428 h 13.98218 v 37.251521 h -13.98218 z m 69.33818,10.119454 h -8.88569 V 46.853428 h 31.78007 v 10.119454 h -8.9164 v 27.132067 h -13.97798 z m 27.0232,-10.129224 h 27.65405 v 9.851953 h -13.89146 v 3.896214 h 12.79028 v 9.550025 h -12.79028 v 4.180463 h 14.33342 v 9.771935 h -28.09601 z"
         id="Shape"
         inkscape:connector-curvature="0"
         style="fill:#7b7692" />
      <g
         id="Group-58">
        <polygon
           id="Path"
           points="82.188236,6.9268857 64.251698,13.882383 49.429572,40.334996 64.251698,34.655131 78.399488,40.072379 82.188236,35.820273 "
           style="fill:#0222a9" />
        <polygon
           id="polygon60"
           points="64.251698,128.32987 64.251698,49.422593 83.528068,42.04049 110.29936,80.304096 110.29936,31.655396 128.50386,24.634768 128.50386,101.27526 110.29936,108.92091 83.528068,73.982461 83.528068,120.1762 "
           style="fill:#011da9" />
        <polygon
           id="polygon62"
           points="18.204272,68.198853 18.204272,108.92091 35.284108,101.359 "
           style="fill:#0222a9" />
        <path
           d="M 36.409241,24.634768 44.977189,42.038397 49.429572,40.334996 64.251698,13.882383 46.314229,6.9066487 Z m 41.990247,15.437611 13.700947,-15.437611 18.198925,7.020628 v 48.6487 L 83.528068,42.04049 Z"
           id="path64"
           inkscape:connector-curvature="0"
           style="fill:#069330" />
        <polygon
           id="polygon66"
           points="18.204272,108.92091 18.204272,68.198853 44.977189,120.1762 64.251698,128.32987 64.251698,49.422593 44.977189,42.038397 44.977189,82.096587 18.204272,31.655396 7.7566371e-13,24.634768 7.7566371e-13,101.27526 "
           style="fill:#069330" />
        <path
           d="m 44.977189,42.038397 v 40.05819 L 18.204272,31.655396 36.409241,24.634768 Z M 110.29936,108.92091 83.528068,73.982461 v 19.088654 l 5.466794,7.668915 z"
           id="path68"
           inkscape:connector-curvature="0"
           style="fill:#fe2015" />
        <path
           d="m 83.528068,42.038397 -19.27637,7.384196 -19.274509,-7.384196 19.274509,-7.383266 z m 8.565389,-17.403629 18.205903,-7.003414 18.2045,7.003414 -18.2045,7.020628 z M 0,24.634768 18.204272,17.631354 36.409241,24.634768 18.204272,31.655396 Z M 82.188236,6.9268857 64.251698,0 46.314229,6.9066487 64.251698,13.882383 Z"
           id="path70"
           inkscape:connector-curvature="0"
           style="fill:#ffc001" />
      </g>
      <path
         d="m 358.56845,46.846914 h 16.56228 c 14.1422,0 18.60878,8.001776 18.60878,19.027478 0,11.258312 -6.93178,18.236604 -17.77139,18.236604 H 358.56891 V 46.846914 Z m 13.67745,28.797087 h 1.34914 c 2.27957,0 3.76874,-0.697829 4.65219,-2.186531 0.93044,-1.535225 1.02348,-4.372598 1.02348,-8.001776 0,-3.581725 -0.093,-6.420029 -1.02348,-7.955253 -0.88345,-1.488703 -2.37262,-2.186532 -4.65219,-2.186532 h -1.34914 z m 43.40498,-29.774048 c 12.18875,0 18.2366,8.001776 18.2366,19.585741 0,11.630488 -6.04785,19.632263 -18.2366,19.632263 -12.14223,0 -18.23661,-8.001775 -18.23661,-19.632263 0,-11.583965 6.09484,-19.585741 18.23661,-19.585741 z m 0,29.774048 c 2.18653,0 3.76828,-1.070004 3.76828,-10.188307 0,-8.885692 -1.48824,-10.141785 -3.76828,-10.141785 -2.23306,0 -3.76828,1.256093 -3.76828,10.141785 4.7e-4,9.118303 1.62873,10.188307 3.76828,10.188307 z m 24.7962,0.604786 c -2.46566,0 -4.41959,1.953922 -4.41959,4.419585 0,2.419141 1.95393,4.419585 4.41959,4.419585 2.41914,0 4.41958,-2.000444 4.41958,-4.419585 0,-2.465663 -2.00044,-4.419585 -4.41958,-4.419585 z m 0,8.048297 c -2.0465,0 -3.67477,-1.628268 -3.67477,-3.628712 0,-2.000444 1.62827,-3.628712 3.67477,-3.628712 2.00044,0 3.62871,1.628268 3.62871,3.628712 0,2.000444 -1.62827,3.628712 -3.62871,3.628712 z"
         id="path73"
         inkscape:connector-curvature="0"
         style="fill:#ffffff" />
      <path
         d="m 439.70273,83.087513 h -1.02349 v -4.838282 h 2.04697 c 0.83739,0 1.72085,0.279597 1.72085,1.256092 0,0.604786 -0.41824,1.023483 -1.02302,1.163049 0.79041,0.09304 0.79041,0.604785 0.88345,1.256093 0.047,0.325653 0.093,0.883917 0.2796,1.163048 h -1.16305 c -0.0931,-0.418697 -0.14003,-0.883917 -0.18609,-1.302614 0,-0.279597 -0.093,-0.651308 -0.4187,-0.651308 h -1.11652 z m 0,-2.744795 h 0.88391 c 0.46522,0 0.74482,-0.232609 0.74482,-0.697829 0,-0.418232 -0.2796,-0.604785 -0.74482,-0.604785 h -0.88391 z m -276.07754,3.762231 h 16.76372 V 46.853428 H 169.0464 v 21.361018 h -0.0968 l -7.4793,-21.361018 h -16.76326 v 37.251521 h 11.33601 V 62.602038 h 0.10188 z m 63.2452,0 h 16.76465 V 46.853428 H 232.2981 v 21.361018 h -0.10188 L 224.71735,46.853428 H 207.9541 v 37.251521 h 11.34065 V 62.602038 h 0.0986 z m 108.9037,0 h 16.76697 V 46.853428 h -11.33972 v 21.361018 h -0.10142 l -7.47794,-21.361018 h -16.76465 v 37.251521 h 11.3374 V 62.602038 h 0.10049 z M 187.23787,46.853428 h 13.98218 v 37.251521 h -13.98218 z m 69.33818,10.119454 h -8.88569 V 46.853428 h 31.78007 v 10.119454 h -8.9164 v 27.132067 h -13.97798 z m 27.0232,-10.129224 h 27.65405 v 9.851953 h -13.89146 v 3.896214 h 12.79028 v 9.550025 h -12.79028 v 4.180463 h 14.33342 v 9.771935 h -28.09601 z"
         id="path75"
         inkscape:connector-curvature="0"
         style="fill:#ffffff" />
      <path
         d="m 458.91629,41.915588 c -0.74435,-0.09304 -1.4887,-0.04652 -2.46566,0 -5.90829,0.279131 -8.28091,2.791317 -9.11877,5.629156 h 0.14003 c 1.48824,-1.302615 3.30306,-1.9074 5.7222,-1.9074 4.69872,0 8.93222,3.396102 8.93222,9.816131 0,6.094841 -4.6522,10.84008 -10.97965,10.84008 -8.28091,0 -11.90962,-6.327451 -11.90962,-13.11919 0,-5.536112 1.95392,-10.188307 5.16394,-13.212234 3.07091,-2.837839 7.02528,-4.280019 11.8631,-4.372598 1.25609,-0.09304 2.04696,0 2.65175,0.04652 v 6.279533 h 4.6e-4 z m -7.86221,18.37617 c 1.90787,0 3.07092,-1.953922 3.07092,-4.466107 0,-2.093488 -0.97743,-4.373064 -3.53614,-4.373064 -1.58128,0 -2.79131,0.976961 -3.25653,2.186532 -0.18563,0.372176 -0.23261,0.883452 -0.23261,1.767834 0.14003,2.37262 1.30308,4.884805 3.90784,4.884805 z m 25.72711,5.48959 V 59.128709 H 464.35983 V 53.778685 L 474.31506,36.0073 h 9.95569 v 16.980512 h 3.1635 v 6.140897 h -3.1635 v 6.652639 z m 0,-12.793536 v -5.117415 c 0,-1.9074 0.0926,-3.861322 0.18562,-5.954809 h -0.13957 c -0.93044,2.046965 -1.72131,3.954365 -2.79131,6.001331 l -2.41915,4.977849 -0.0465,0.09304 z"
         id="path77"
         inkscape:connector-curvature="0"
         style="fill:#ff2d1e" />
    </g>
  </g>
</svg>
